assets/icons/folder-input-open.svg

<?xml version="1.0" encoding="UTF-8"?>
<svg version="1.1" viewBox="0 0 32 32" xmlns="http://www.w3.org/2000/svg">
 <path d="m28.965 12h-19.524c-0.86094-1e-3 -1.6259 0.55-1.8979 1.368l-3.5437 10.632v-14h23.998c0-1.105-0.89494-2-1.9999-2h-10.875c-0.46797-1e-3 -0.92094-0.165-1.2799-0.464l-1.2879-1.072c-0.35898-0.3-0.81194-0.464-1.2799-0.464h-7.2755c-1.1039 0-1.9999 0.895-1.9999 2v16c0 1.104 0.89594 2 1.9999 2h21.998l4.8047-11.212c0.56596-1.32-0.40197-2.788-1.8379-2.788" fill="#00acc1" stroke-width=".99996"/>
 <path d="m13.98 10c-1.0977 0-1.9805 0.99359-1.9805 2.2285v3.7715h2v-4h16v14h-16v-4h-2v3.7715c0 1.2349 0.88276 2.2285 1.9805 2.2285h16.039c1.0977 0 1.9805-0.99359 1.9805-2.2285v-13.543c0-1.2349-0.88276-2.2285-1.9805-2.2285zm8.0195 4v4h-10v2h10v4l5.1211-5z" fill="#b2ebf2" stroke-width="1.0607"/>
</svg>

<svg xmlns="http://www.w3.org/2000/svg" viewBox="0 0 32 32"><path fill="#00acc1" d="M28.965 12H9.441a2 2 0 0 0-1.898 1.368L4 24V10h23.998a2 2 0 0 0-2-2H15.122a2 2 0 0 1-1.28-.464l-1.287-1.072A2 2 0 0 0 11.275 6H3.999a2 2 0 0 0-2 2v16a2 2 0 0 0 2 2h21.998l4.805-11.212A2 2 0 0 0 28.964 12"/><path fill="#b2ebf2" d="M13.98 10c-1.098 0-1.98.994-1.98 2.229V16h2v-4h16v14H14v-4h-2v3.772c0 1.234.882 2.228 1.98 2.228h16.039c1.098 0 1.98-.994 1.98-2.228V12.229C32 10.994 31.118 10 30.02 10zM22 14v4H12v2h10v4l5.12-5z"/></svg>
